dist/assets/img/logo.svg

<?xml version="1.0" encoding="utf-8"?>
<!-- Generator: Adobe Illustrator 16.0.4, SVG Export Plug-In . SVG Version: 6.00 Build 0)  -->
<!DOCTYPE svg PUBLIC "-//W3C//DTD SVG 1.1//EN" "http://www.w3.org/Graphics/SVG/1.1/DTD/svg11.dtd">
<svg version="1.1" id="Layer_1" xmlns="http://www.w3.org/2000/svg" xmlns:xlink="http://www.w3.org/1999/xlink" x="0px" y="0px"
	 width="100px" height="100px" viewBox="0 0 100 100" enable-background="new 0 0 100 100" xml:space="preserve">
<g>
	<g>
		<path fill="#FFFFFF" d="M25.997,100.987c-8.333,0-16.664,0-24.997,0C1,67.658,1,34.329,1,1c33.329,0,66.658,0,99.987,0
			c0,8.332,0,16.665,0,24.997c-24.879,0-49.759,0-74.632,0c0,8.664,0,16.704,0,25.267c8.399,0,16.448,0,24.37,0
			c0,8.458,0,16.38,0,24.83c-8.307,0-16.358,0-24.728,0C25.997,84.744,25.997,92.866,25.997,100.987z"/>
		<path fill-rule="evenodd" clip-rule="evenodd" d="M25.997,100.987c0-8.121,0-16.243,0-24.894c8.37,0,16.421,0,24.728,0
			c0-8.45,0-16.372,0-24.83c-7.921,0-15.971,0-24.37,0c0-8.563,0-16.603,0-25.267c24.874,0,49.753,0,74.632,0
			c0,8.332,0,16.665,0,24.997c-8.228,0-16.454,0-24.656,0c0,8.669,0,16.693,0,24.997c8.445,0,16.551,0,24.656,0
			c0,8.332,0,16.665,0,24.997C75.99,100.987,50.993,100.987,25.997,100.987z"/>
		<path fill-rule="evenodd" clip-rule="evenodd" fill="#FFFFFF" d="M100.987,75.99c-8.105,0-16.211,0-24.656,0
			c0-8.304,0-16.328,0-24.997c8.202,0,16.429,0,24.656,0C100.987,59.325,100.987,67.658,100.987,75.99z"/>
	</g>
</g>
</svg>

<svg xmlns="http://www.w3.org/2000/svg" width="100" height="100" viewBox="0 0 100 100"><path fill="#FFF" d="M25.997 100.987H1V1h99.987v24.997H26.355v25.267h24.37v24.83H25.997v24.893z"/><path fill-rule="evenodd" clip-rule="evenodd" d="M25.997 100.987V76.093h24.728v-24.83h-24.37V25.996h74.632v24.997H76.331V75.99h24.656v24.997h-74.99z"/><path fill-rule="evenodd" clip-rule="evenodd" fill="#FFF" d="M100.987 75.99H76.331V50.993h24.656V75.99z"/></svg>
